src/pos-icons/hospital.svg

<svg height="24" viewBox="0 0 24 24" width="24" xmlns="http://www.w3.org/2000/svg"><path d="m18 14h-4v4h-4v-4h-4v-4h4v-4h4v4h4"/></svg>

<?xml version="1.0" encoding="UTF-8"?><!DOCTYPE svg PUBLIC "-//W3C//DTD SVG 1.1//EN" "http://www.w3.org/Graphics/SVG/1.1/DTD/svg11.dtd"><svg xmlns="http://www.w3.org/2000/svg" xmlns:xlink="http://www.w3.org/1999/xlink" version="1.1" id="mdi-hospital" width="24" height="24" viewBox="0 0 24 24"><path d="M18 14H14V18H10V14H6V10H10V6H14V10H18" /></svg>
